docs/docs/05-Concepts/03-Network/vrf-simple.svg

<svg xmlns="http://www.w3.org/2000/svg" xmlns:xlink="http://www.w3.org/1999/xlink" width="431" onclick="(function(svg){var src=window.event.target||window.event.srcElement;while (src!=null&amp;&amp;src.nodeName.toLowerCase()!='a'){src=src.parentNode;}if(src==null){if(svg.wnd!=null&amp;&amp;!svg.wnd.closed){svg.wnd.focus();}else{var r=function(evt){if(evt.data=='ready'&amp;&amp;evt.source==svg.wnd){svg.wnd.postMessage(decodeURIComponent(svg.getAttribute('content')),'*');window.removeEventListener('message',r);}};window.addEventListener('message',r);svg.wnd=window.open('https://app.diagrams.net/?client=1&amp;lightbox=1&amp;edit=_blank');}}})(this);" style="cursor:pointer;max-width:100%;max-height:311px" viewBox="-0.5 -0.5 431 311"><path fill="none" stroke="#000" stroke-miterlimit="10" d="M57.5 120v70H75v70m37.5-140v70H215v70" pointer-events="stroke"/><path fill="#fff" stroke="#000" d="M160 260h110v50H160z" pointer-events="all"/><switch transform="translate(-.5 -.5)"><foreignObject width="100%" height="100%" pointer-events="none" requiredFeatures="http://www.w3.org/TR/SVG11/feature#Extensibility" style="overflow:visible;text-align:left"><div xmlns="http://www.w3.org/1999/xhtml" style="display:flex;align-items:unsafe center;justify-content:unsafe center;width:1px;height:1px;padding-top:285px;margin-left:215px"><div style="box-sizing:border-box;font-size:0;text-align:center"><div style="display:inline-block;font-size:12px;font-family:Helvetica;color:#000;line-height:1.2;pointer-events:all;white-space:nowrap">Machine 2</div></div></div></foreignObject><text x="215" y="289" font-family="Helvetica" font-size="12" text-anchor="middle">Machine 2</text></switch><path fill="#fff" stroke="#000" d="M20 260h110v50H20z" pointer-events="all"/><switch transform="translate(-.5 -.5)"><foreignObject width="100%" height="100%" pointer-events="none" requiredFeatures="http://www.w3.org/TR/SVG11/feature#Extensibility" style="overflow:visible;text-align:left"><div xmlns="http://www.w3.org/1999/xhtml" style="display:flex;align-items:unsafe center;justify-content:unsafe center;width:1px;height:1px;padding-top:285px;margin-left:75px"><div style="box-sizing:border-box;font-size:0;text-align:center"><div style="display:inline-block;font-size:12px;font-family:Helvetica;color:#000;line-height:1.2;pointer-events:all;white-space:nowrap">Machine 1</div></div></div></foreignObject><text x="75" y="289" font-family="Helvetica" font-size="12" text-anchor="middle">Machine 1</text></switch><path fill="#fff" stroke="#000" stroke-miterlimit="10" d="M0 0h60v15L50 30H0Z" pointer-events="all"/><path fill="none" stroke="#000" stroke-miterlimit="10" d="M60 0h240v150H0V30" pointer-events="all"/><switch transform="translate(-.5 -.5)"><foreignObject width="100%" height="100%" pointer-events="none" requiredFeatures="http://www.w3.org/TR/SVG11/feature#Extensibility" style="overflow:visible;text-align:left"><div xmlns="http://www.w3.org/1999/xhtml" style="display:flex;align-items:unsafe center;justify-content:unsafe center;width:58px;height:1px;padding-top:15px;margin-left:1px"><div style="box-sizing:border-box;font-size:0;text-align:center"><div style="display:inline-block;font-size:12px;font-family:Helvetica;color:#000;line-height:1.2;pointer-events:all;white-space:normal;word-wrap:normal">leaf</div></div></div></foreignObject><text x="30" y="19" font-family="Helvetica" font-size="12" text-anchor="middle">leaf</text></switch><path fill="#fff" stroke="#000" d="M30 70h110v50H30z" pointer-events="all"/><switch transform="translate(-.5 -.5)"><foreignObject width="100%" height="100%" pointer-events="none" requiredFeatures="http://www.w3.org/TR/SVG11/feature#Extensibility" style="overflow:visible;text-align:left"><div xmlns="http://www.w3.org/1999/xhtml" style="display:flex;align-items:unsafe center;justify-content:unsafe center;width:1px;height:1px;padding-top:95px;margin-left:85px"><div style="box-sizing:border-box;font-size:0;text-align:center"><div style="display:inline-block;font-size:12px;font-family:Helvetica;color:#000;line-height:1.2;pointer-events:all;white-space:nowrap">VRF 1</div></div></div></foreignObject><text x="85" y="99" font-family="Helvetica" font-size="12" text-anchor="middle">VRF 1</text></switch><path fill="#fff" stroke="#000" d="M170 70h110v50H170z" pointer-events="all"/><switch transform="translate(-.5 -.5)"><foreignObject width="100%" height="100%" pointer-events="none" requiredFeatures="http://www.w3.org/TR/SVG11/feature#Extensibility" style="overflow:visible;text-align:left"><div xmlns="http://www.w3.org/1999/xhtml" style="display:flex;align-items:unsafe center;justify-content:unsafe center;width:1px;height:1px;padding-top:95px;margin-left:225px"><div style="box-sizing:border-box;font-size:0;text-align:center"><div style="display:inline-block;font-size:12px;font-family:Helvetica;color:#000;line-height:1.2;pointer-events:all;white-space:nowrap">VRF 2</div></div></div></foreignObject><text x="225" y="99" font-family="Helvetica" font-size="12" text-anchor="middle">VRF 2</text></switch><path fill="none" stroke="#000" stroke-miterlimit="10" d="M375 260v-70H225v-70" pointer-events="stroke"/><path fill="#fff" stroke="#000" d="M320 260h110v50H320z" pointer-events="all"/><switch transform="translate(-.5 -.5)"><foreignObject width="100%" height="100%" pointer-events="none" requiredFeatures="http://www.w3.org/TR/SVG11/feature#Extensibility" style="overflow:visible;text-align:left"><div xmlns="http://www.w3.org/1999/xhtml" style="display:flex;align-items:unsafe center;justify-content:unsafe center;width:1px;height:1px;padding-top:285px;margin-left:375px"><div style="box-sizing:border-box;font-size:0;text-align:center"><div style="display:inline-block;font-size:12px;font-family:Helvetica;color:#000;line-height:1.2;pointer-events:all;white-space:nowrap">Machine 3</div></div></div></foreignObject><text x="375" y="289" font-family="Helvetica" font-size="12" text-anchor="middle">Machine 3</text></switch><switch><g requiredFeatures="http://www.w3.org/TR/SVG11/feature#Extensibility"/><a xlink:href="https://desk.draw.io/support/solutions/articles/16000042487" target="_blank" transform="translate(0 -5)"><text x="50%" y="100%" font-size="10" text-anchor="middle">Viewer does not support full SVG 1.1</text></a></switch></svg>

<svg xmlns="http://www.w3.org/2000/svg" xmlns:xlink="http://www.w3.org/1999/xlink" version="1.1" width="431px" viewBox="-0.5 -0.5 431 311" content="&lt;mxfile host=&quot;&quot; modified=&quot;2020-06-10T10:09:40.166Z&quot; agent=&quot;5.0 (X11; Linux x86_64) AppleWebKit/537.36 (KHTML, like Gecko) Code/1.45.1 Chrome/78.0.3904.130 Electron/7.2.4 Safari/537.36&quot; etag=&quot;q2vnOGKRX02wyy9YPjjY&quot; version=&quot;13.1.3&quot;&gt;&lt;diagram id=&quot;6hGFLwfOUW9BJ-s0fimq&quot; name=&quot;Page-1&quot;&gt;&lt;mxGraphModel dx=&quot;1702&quot; dy=&quot;1131&quot; grid=&quot;1&quot; gridSize=&quot;10&quot; guides=&quot;1&quot; tooltips=&quot;1&quot; connect=&quot;1&quot; arrows=&quot;1&quot; fold=&quot;1&quot; page=&quot;1&quot; pageScale=&quot;1&quot; pageWidth=&quot;827&quot; pageHeight=&quot;1169&quot; math=&quot;0&quot; shadow=&quot;0&quot;&gt;&lt;root&gt;&lt;mxCell id=&quot;0&quot;/&gt;&lt;mxCell id=&quot;1&quot; parent=&quot;0&quot;/&gt;&lt;mxCell id=&quot;14&quot; style=&quot;edgeStyle=orthogonalEdgeStyle;rounded=0;orthogonalLoop=1;jettySize=auto;html=1;exitX=0.25;exitY=1;exitDx=0;exitDy=0;entryX=0.5;entryY=0;entryDx=0;entryDy=0;endArrow=none;endFill=0;&quot; parent=&quot;1&quot; source=&quot;21&quot; target=&quot;13&quot; edge=&quot;1&quot;&gt;&lt;mxGeometry relative=&quot;1&quot; as=&quot;geometry&quot;&gt;&lt;mxPoint x=&quot;167.5&quot; y=&quot;590&quot; as=&quot;sourcePoint&quot;/&gt;&lt;/mxGeometry&gt;&lt;/mxCell&gt;&lt;mxCell id=&quot;16&quot; style=&quot;rounded=0;orthogonalLoop=1;jettySize=auto;html=1;exitX=0.75;exitY=1;exitDx=0;exitDy=0;entryX=0.5;entryY=0;entryDx=0;entryDy=0;endArrow=none;endFill=0;edgeStyle=orthogonalEdgeStyle;&quot; parent=&quot;1&quot; source=&quot;21&quot; target=&quot;12&quot; edge=&quot;1&quot;&gt;&lt;mxGeometry relative=&quot;1&quot; as=&quot;geometry&quot;&gt;&lt;mxPoint x=&quot;222.5&quot; y=&quot;590&quot; as=&quot;sourcePoint&quot;/&gt;&lt;/mxGeometry&gt;&lt;/mxCell&gt;&lt;mxCell id=&quot;12&quot; value=&quot;Machine 2&quot; style=&quot;html=1;&quot; parent=&quot;1&quot; vertex=&quot;1&quot;&gt;&lt;mxGeometry x=&quot;280&quot; y=&quot;620&quot; width=&quot;110&quot; height=&quot;50&quot; as=&quot;geometry&quot;/&gt;&lt;/mxCell&gt;&lt;mxCell id=&quot;13&quot; value=&quot;Machine 1&quot; style=&quot;html=1;&quot; parent=&quot;1&quot; vertex=&quot;1&quot;&gt;&lt;mxGeometry x=&quot;140&quot; y=&quot;620&quot; width=&quot;110&quot; height=&quot;50&quot; as=&quot;geometry&quot;/&gt;&lt;/mxCell&gt;&lt;mxCell id=&quot;20&quot; value=&quot;leaf&quot; style=&quot;shape=umlFrame;whiteSpace=wrap;html=1;&quot; vertex=&quot;1&quot; parent=&quot;1&quot;&gt;&lt;mxGeometry x=&quot;120&quot; y=&quot;360&quot; width=&quot;300&quot; height=&quot;150&quot; as=&quot;geometry&quot;/&gt;&lt;/mxCell&gt;&lt;mxCell id=&quot;21&quot; value=&quot;VRF 1&quot; style=&quot;html=1;&quot; vertex=&quot;1&quot; parent=&quot;1&quot;&gt;&lt;mxGeometry x=&quot;150&quot; y=&quot;430&quot; width=&quot;110&quot; height=&quot;50&quot; as=&quot;geometry&quot;/&gt;&lt;/mxCell&gt;&lt;mxCell id=&quot;22&quot; value=&quot;VRF 2&quot; style=&quot;html=1;&quot; vertex=&quot;1&quot; parent=&quot;1&quot;&gt;&lt;mxGeometry x=&quot;290&quot; y=&quot;430&quot; width=&quot;110&quot; height=&quot;50&quot; as=&quot;geometry&quot;/&gt;&lt;/mxCell&gt;&lt;mxCell id=&quot;24&quot; style=&quot;edgeStyle=orthogonalEdgeStyle;rounded=0;orthogonalLoop=1;jettySize=auto;html=1;entryX=0.5;entryY=1;entryDx=0;entryDy=0;exitX=0.5;exitY=0;exitDx=0;exitDy=0;endArrow=none;endFill=0;&quot; edge=&quot;1&quot; parent=&quot;1&quot; source=&quot;23&quot; target=&quot;22&quot;&gt;&lt;mxGeometry relative=&quot;1&quot; as=&quot;geometry&quot;/&gt;&lt;/mxCell&gt;&lt;mxCell id=&quot;23&quot; value=&quot;Machine 3&quot; style=&quot;html=1;&quot; vertex=&quot;1&quot; parent=&quot;1&quot;&gt;&lt;mxGeometry x=&quot;440&quot; y=&quot;620&quot; width=&quot;110&quot; height=&quot;50&quot; as=&quot;geometry&quot;/&gt;&lt;/mxCell&gt;&lt;/root&gt;&lt;/mxGraphModel&gt;&lt;/diagram&gt;&lt;/mxfile&gt;" onclick="(function(svg){var src=window.event.target||window.event.srcElement;while (src!=null&amp;&amp;src.nodeName.toLowerCase()!='a'){src=src.parentNode;}if(src==null){if(svg.wnd!=null&amp;&amp;!svg.wnd.closed){svg.wnd.focus();}else{var r=function(evt){if(evt.data=='ready'&amp;&amp;evt.source==svg.wnd){svg.wnd.postMessage(decodeURIComponent(svg.getAttribute('content')),'*');window.removeEventListener('message',r);}};window.addEventListener('message',r);svg.wnd=window.open('https://app.diagrams.net/?client=1&amp;lightbox=1&amp;edit=_blank');}}})(this);" style="cursor:pointer;max-width:100%;max-height:311px;"><defs/><g><path d="M 57.5 120 L 57.5 190 L 75 190 L 75 260" fill="none" stroke="#000000" stroke-miterlimit="10" pointer-events="stroke"/><path d="M 112.5 120 L 112.5 190 L 215 190 L 215 260" fill="none" stroke="#000000" stroke-miterlimit="10" pointer-events="stroke"/><rect x="160" y="260" width="110" height="50" fill="#ffffff" stroke="#000000" pointer-events="all"/><g transform="translate(-0.5 -0.5)"><switch><foreignObject style="overflow: visible; text-align: left;" pointer-events="none" width="100%" height="100%" requiredFeatures="http://www.w3.org/TR/SVG11/feature#Extensibility"><div xmlns="http://www.w3.org/1999/xhtml" style="display: flex; align-items: unsafe center; justify-content: unsafe center; width: 1px; height: 1px; padding-top: 285px; margin-left: 215px;"><div style="box-sizing: border-box; font-size: 0; text-align: center; "><div style="display: inline-block; font-size: 12px; font-family: Helvetica; color: #000000; line-height: 1.2; pointer-events: all; white-space: nowrap; ">Machine 2</div></div></div></foreignObject><text x="215" y="289" fill="#000000" font-family="Helvetica" font-size="12px" text-anchor="middle">Machine 2</text></switch></g><rect x="20" y="260" width="110" height="50" fill="#ffffff" stroke="#000000" pointer-events="all"/><g transform="translate(-0.5 -0.5)"><switch><foreignObject style="overflow: visible; text-align: left;" pointer-events="none" width="100%" height="100%" requiredFeatures="http://www.w3.org/TR/SVG11/feature#Extensibility"><div xmlns="http://www.w3.org/1999/xhtml" style="display: flex; align-items: unsafe center; justify-content: unsafe center; width: 1px; height: 1px; padding-top: 285px; margin-left: 75px;"><div style="box-sizing: border-box; font-size: 0; text-align: center; "><div style="display: inline-block; font-size: 12px; font-family: Helvetica; color: #000000; line-height: 1.2; pointer-events: all; white-space: nowrap; ">Machine 1</div></div></div></foreignObject><text x="75" y="289" fill="#000000" font-family="Helvetica" font-size="12px" text-anchor="middle">Machine 1</text></switch></g><path d="M 0 0 L 60 0 L 60 15 L 50 30 L 0 30 Z" fill="#ffffff" stroke="#000000" stroke-miterlimit="10" pointer-events="all"/><path d="M 60 0 L 300 0 L 300 150 L 0 150 L 0 30" fill="none" stroke="#000000" stroke-miterlimit="10" pointer-events="all"/><g transform="translate(-0.5 -0.5)"><switch><foreignObject style="overflow: visible; text-align: left;" pointer-events="none" width="100%" height="100%" requiredFeatures="http://www.w3.org/TR/SVG11/feature#Extensibility"><div xmlns="http://www.w3.org/1999/xhtml" style="display: flex; align-items: unsafe center; justify-content: unsafe center; width: 58px; height: 1px; padding-top: 15px; margin-left: 1px;"><div style="box-sizing: border-box; font-size: 0; text-align: center; "><div style="display: inline-block; font-size: 12px; font-family: Helvetica; color: #000000; line-height: 1.2; pointer-events: all; white-space: normal; word-wrap: normal; ">leaf</div></div></div></foreignObject><text x="30" y="19" fill="#000000" font-family="Helvetica" font-size="12px" text-anchor="middle">leaf</text></switch></g><rect x="30" y="70" width="110" height="50" fill="#ffffff" stroke="#000000" pointer-events="all"/><g transform="translate(-0.5 -0.5)"><switch><foreignObject style="overflow: visible; text-align: left;" pointer-events="none" width="100%" height="100%" requiredFeatures="http://www.w3.org/TR/SVG11/feature#Extensibility"><div xmlns="http://www.w3.org/1999/xhtml" style="display: flex; align-items: unsafe center; justify-content: unsafe center; width: 1px; height: 1px; padding-top: 95px; margin-left: 85px;"><div style="box-sizing: border-box; font-size: 0; text-align: center; "><div style="display: inline-block; font-size: 12px; font-family: Helvetica; color: #000000; line-height: 1.2; pointer-events: all; white-space: nowrap; ">VRF 1</div></div></div></foreignObject><text x="85" y="99" fill="#000000" font-family="Helvetica" font-size="12px" text-anchor="middle">VRF 1</text></switch></g><rect x="170" y="70" width="110" height="50" fill="#ffffff" stroke="#000000" pointer-events="all"/><g transform="translate(-0.5 -0.5)"><switch><foreignObject style="overflow: visible; text-align: left;" pointer-events="none" width="100%" height="100%" requiredFeatures="http://www.w3.org/TR/SVG11/feature#Extensibility"><div xmlns="http://www.w3.org/1999/xhtml" style="display: flex; align-items: unsafe center; justify-content: unsafe center; width: 1px; height: 1px; padding-top: 95px; margin-left: 225px;"><div style="box-sizing: border-box; font-size: 0; text-align: center; "><div style="display: inline-block; font-size: 12px; font-family: Helvetica; color: #000000; line-height: 1.2; pointer-events: all; white-space: nowrap; ">VRF 2</div></div></div></foreignObject><text x="225" y="99" fill="#000000" font-family="Helvetica" font-size="12px" text-anchor="middle">VRF 2</text></switch></g><path d="M 375 260 L 375 190 L 225 190 L 225 120" fill="none" stroke="#000000" stroke-miterlimit="10" pointer-events="stroke"/><rect x="320" y="260" width="110" height="50" fill="#ffffff" stroke="#000000" pointer-events="all"/><g transform="translate(-0.5 -0.5)"><switch><foreignObject style="overflow: visible; text-align: left;" pointer-events="none" width="100%" height="100%" requiredFeatures="http://www.w3.org/TR/SVG11/feature#Extensibility"><div xmlns="http://www.w3.org/1999/xhtml" style="display: flex; align-items: unsafe center; justify-content: unsafe center; width: 1px; height: 1px; padding-top: 285px; margin-left: 375px;"><div style="box-sizing: border-box; font-size: 0; text-align: center; "><div style="display: inline-block; font-size: 12px; font-family: Helvetica; color: #000000; line-height: 1.2; pointer-events: all; white-space: nowrap; ">Machine 3</div></div></div></foreignObject><text x="375" y="289" fill="#000000" font-family="Helvetica" font-size="12px" text-anchor="middle">Machine 3</text></switch></g></g><switch><g requiredFeatures="http://www.w3.org/TR/SVG11/feature#Extensibility"/><a transform="translate(0,-5)" xlink:href="https://desk.draw.io/support/solutions/articles/16000042487" target="_blank"><text text-anchor="middle" font-size="10px" x="50%" y="100%">Viewer does not support full SVG 1.1</text></a></switch></svg>
